src/lib/packages/icons/src/assets/line/arrow-right-to-line.svg

<svg width="24" height="24" viewBox="0 0 24 24" fill="none" xmlns="http://www.w3.org/2000/svg">
<path d="M17.6919 12.2871C17.6539 12.3791 17.599 12.462 17.53 12.531L12.53 17.531C12.384 17.677 12.192 17.751 12 17.751C11.808 17.751 11.616 17.678 11.47 17.531C11.177 17.238 11.177 16.763 11.47 16.47L15.1899 12.75H3C2.586 12.75 2.25 12.414 2.25 12C2.25 11.586 2.586 11.25 3 11.25H15.189L11.469 7.53003C11.176 7.23703 11.176 6.76199 11.469 6.46899C11.762 6.17599 12.237 6.17599 12.53 6.46899L17.53 11.469C17.599 11.538 17.6539 11.6209 17.6919 11.7129C17.7679 11.8969 17.7679 12.1031 17.6919 12.2871ZM21 5.25C20.586 5.25 20.25 5.586 20.25 6V18C20.25 18.414 20.586 18.75 21 18.75C21.414 18.75 21.75 18.414 21.75 18V6C21.75 5.586 21.414 5.25 21 5.25Z" fill="currentColor"/>
</svg>

<svg xmlns="http://www.w3.org/2000/svg" width="24" height="24" fill="none"><path fill="currentColor" d="M17.692 12.287a.748.748 0 0 1-.162.244l-5 5a.748.748 0 0 1-1.06 0 .75.75 0 0 1 0-1.061l3.72-3.72H3a.75.75 0 0 1 0-1.5h12.189l-3.72-3.72a.75.75 0 0 1 1.061-1.061l5 5a.748.748 0 0 1 .162.818ZM21 5.25a.75.75 0 0 0-.75.75v12a.75.75 0 0 0 1.5 0V6a.75.75 0 0 0-.75-.75Z"/></svg>
